public/icons/return.svg

<?xml version="1.0" encoding="utf-8"?><!-- Uploaded to: SVG Repo, www.svgrepo.com, Generator: SVG Repo Mixer Tools -->
<svg width="800px" height="800px" viewBox="0 0 24 24" fill="none" xmlns="http://www.w3.org/2000/svg">
<path fill-rule="evenodd" clip-rule="evenodd" d="M3.46447 3.46447C2 4.92893 2 7.28595 2 12C2 16.714 2 19.0711 3.46447 20.5355C4.92893 22 7.28595 22 12 22C16.714 22 19.0711 22 20.5355 20.5355C22 19.0711 22 16.7141 22 12C22 7.28598 22 4.92893 20.5355 3.46447C19.0711 2 16.714 2 12 2C7.28595 2 4.92893 2 3.46447 3.46447ZM9.25871 7.97395C9.56308 7.693 9.58205 7.21851 9.3011 6.91414C9.02015 6.60978 8.54565 6.5908 8.24129 6.87175L5.99129 8.94867C5.83748 9.09065 5.75 9.29045 5.75 9.49977C5.75 9.7091 5.83748 9.9089 5.99129 10.0509L8.24129 12.1278C8.54565 12.4088 9.02015 12.3898 9.3011 12.0854C9.58205 11.781 9.56308 11.3065 9.25871 11.0256L8.41824 10.2498H14.0385C15.536 10.2498 16.75 11.4638 16.75 12.9613C16.75 14.4589 15.536 15.6729 14.0385 15.6729H9.5C9.08579 15.6729 8.75 16.0086 8.75 16.4229C8.75 16.8371 9.08579 17.1729 9.5 17.1729H14.0385C16.3644 17.1729 18.25 15.2873 18.25 12.9613C18.25 10.6353 16.3644 8.74977 14.0385 8.74977H8.41824L9.25871 7.97395Z" fill="#FFFFFF"/>
</svg>

<svg xmlns="http://www.w3.org/2000/svg" width="800" height="800" fill="none" viewBox="0 0 24 24"><path fill="#fff" fill-rule="evenodd" d="M3.464 3.464C2 4.93 2 7.286 2 12s0 7.071 1.464 8.535C4.93 22 7.286 22 12 22s7.071 0 8.535-1.465C22 19.072 22 16.716 22 12s0-7.071-1.465-8.536C19.072 2 16.714 2 12 2S4.929 2 3.464 3.464m5.795 4.51A.75.75 0 1 0 8.24 6.872l-2.25 2.077a.75.75 0 0 0 0 1.102l2.25 2.077a.75.75 0 1 0 1.018-1.102l-.84-.776h5.62a2.712 2.712 0 0 1 0 5.423H9.5a.75.75 0 1 0 0 1.5h4.539a4.212 4.212 0 0 0 0-8.423h-5.62z" clip-rule="evenodd"/></svg>
